X: 331
T: 332. Von Gott will ich nicht lassen
N: Derived from chor332.krn
C: Johann Sebastian Bach
%%abc-version 2.0
%%abcx-abcm2ps-target-version 5.9.1 (29 Sep 2008)
%%abc-creator hum2abc beta
%%abcx-conversion-date 2019/03/11 17:28:19
%%abc-edited-by Craig Stuart Sapp
%%humdrum-veritas 1226387105
%%humdrum-veritas-data 278019221
%%
%%barnumbers 0
L: 1/4
M: C
%%staves [1 2 3 4]
V: 1 clef=treble
V: 2 clef=treble
V: 3 clef=treble-8
V: 4 clef=bass
K: C
[V:1] E [I:setbarnb 1]| 
[V:2] C/D/ | 
[V:3] A/B/ | 
[V:4] A,, | 
[V:1] ABcd | 
[V:2] EEED | 
[V:3] cBAA | 
[V:4] A,^G,A,/=G,/^F, | 
[V:1] B3/A/!fermata!GG | 
[V:2] D/E/^F!fermata!EE | 
[V:3] B2!fermata!Bc | 
[V:4] G,^D,!fermata!E,C, | 
[V:1] AABB | 
[V:2] EDD/=F/ E/D/ | 
[V:3] c/B/AG/A/B | 
[V:4] F,^F,G,^G, | 
[V:1] !fermata!E3E | 
[V:2] !fermata!C3B, | 
[V:3] !fermata!A3^G | 
[V:4] !fermata!A,3E,/D,/ | 
[V:1] ABcd/c/ | 
[V:2] E^F/^G/AA/=G/ | 
[V:3] AdeA- | 
[V:4] C,B,,A,,/=G,/ =F,/E,/ | 
[V:1] B3/A/!fermata!=GG | 
[V:2] =F/E/D!fermata!ED | 
[V:3] A/^G/A!fermata!BB | 
[V:4] D,/E,/F,!fermata!E,B,, | 
[V:1] AABB | 
[V:2] EED/E/^F | 
[V:3] A/B/ A/G/ ^F/G/A | 
[V:4] C,^C,D,^D, | 
[V:1] !fermata!E3e | 
[V:2] !fermata!B,3C | 
[V:3] !fermata!^G3A- | 
[V:4] !fermata!E,3A,/G,/ | 
[V:1] dccB | 
[V:2] AAGG | 
[V:3] Add/e/ f/d/ | 
[V:4] F,^F,G,G,, | 
[V:1] !fermata!c3B | 
[V:2] !fermata!G3G/F/ | 
[V:3] !fermata!e3d | 
[V:4] !fermata!C,3G, | 
[V:1] cdee | 
[V:2] EDCE | 
[V:3] cggc/B/ | 
[V:4] A,B,C/B,/ A,/G,/ | 
[V:1] d3/c/!fermata!BB | 
[V:2] A/G/ A/^F/!fermata!GG | 
[V:3] Ad!fermata!dd | 
[V:4] ^F,/E,/ F,/D,/!fermata!G,G,/=F,/ | 
[V:1] cBAA | 
[V:2] G/=F/ G/E/CC | 
[V:3] Gcc/B/ A/G/ | 
[V:4] E,/D,/ E,/C,/ F,/G,/ F,/E,/ | 
[V:1] B3/A/!fermata!GG/=F/ | 
[V:2] B,/^C/^D!fermata!E=D | 
[V:3] ^F/G/A!fermata!BG | 
[V:4] ^D,/E,/^F,!fermata!E,B,, | 
[V:1] EAA/B/^G | 
[V:2] D/=C/ C/D/ E/F/E | 
[V:3] GA/B/ c/d/B | 
[V:4] C,=F,E,/D,/ E,/E,,/ | 
[V:1] !fermata!A3 |]  
[V:2] !fermata!E3 |]  
[V:3] !fermata!^c3 |]  
[V:4] !fermata!A,,3 |]  



